; generated by PrusaSlicer 2.4.2+arm64 on 2023-01-25 at 01:45:50 UTC

; 

; external perimeters extrusion width = 0.45mm
; perimeters extrusion width = 0.45mm
; infill extrusion width = 0.45mm
; solid infill extrusion width = 0.45mm
; top infill extrusion width = 0.40mm
; support material extrusion width = 0.38mm
; first layer extrusion width = 0.42mm

M107
;TYPE:Custom
G90 ; use absolute coordinates
M83 ; extruder relative mode
M140 S60 ; set final bed temp
M104 S150 ; set temporary nozzle temp to prevent oozing during homing
G4 S10 ; allow partial nozzle warmup
G28 ; home all axis
G29 ; autolevel
G1 Z50 F240
; backup G1 X2 Y10 F3000
G1 X0 Y0 F3000 ; replacement - try to pee filament in the corner of the bed
M104 S210 ; set final nozzle temp
M190 S60 ; wait for bed temp to stabilize
M109 S210 ; wait for nozzle temp to stabilize
G1 Z0.28 F240
G92 E0
G1 Y140 E10 F1500 ; prime the nozzle
G1 X2.3 F5000
G92 E0
G1 Y10 E10 F1200 ; prime the nozzle
G92 E0
G21 ; set units to millimeters
G90 ; use absolute coordinates
M83 ; use relative distances for extrusion
; Filament gcode
M107
;LAYER_CHANGE
;Z:0.2
;HEIGHT:0.2
;BEFORE_LAYER_CHANGE
G92 E0
;0.2


G1 E-1 F3600
G1 Z.2 F9000
;AFTER_LAYER_CHANGE
;0.2
G1 X65.829 Y115.345
G1 E1 F2400
M204 S500
;TYPE:Skirt/Brim
;WIDTH:0.42
G1 F1200
G1 X66.661 Y114.884 E.02982
G1 X67.965 Y114.461 E.04299
G1 X69.174 Y114.334 E.03811
G1 X241.091 Y114.344 E5.39034
G1 X242.193 Y114.498 E.03488
G1 X243.339 Y114.884 E.03793
G1 X244.6 Y115.657 E.04636
G1 X245.295 Y116.306 E.02982
G1 X246.101 Y117.415 E.04299
G1 X246.503 Y118.277 E.02982
G1 X246.766 Y119.191 E.02982
G1 X246.892 Y120.4 E.03811
G1 X246.882 Y189.865 E2.17802
G1 X246.667 Y191.219 E.043
G1 X246.342 Y192.113 E.02982
G1 X245.881 Y192.945 E.02982
G1 X245.295 Y193.694 E.02982
G1 X244.6 Y194.343 E.02982
G1 X243.339 Y195.116 E.04636
G1 X242.035 Y195.54 E.04299
G1 X240.826 Y195.666 E.03811
G1 X69.174 Y195.666 E5.38203
G1 X68.488 Y195.622 E.02154
G1 X67.555 Y195.441 E.02982
G1 X66.661 Y195.116 E.02982
G1 X65.829 Y194.655 E.02982
G1 X64.705 Y193.695 E.04636
G1 X64.119 Y192.945 E.02982
G1 X63.658 Y192.113 E.02982
G1 X63.235 Y190.809 E.04299
G1 X63.108 Y189.6 E.03811
G1 X63.108 Y120.4 E2.16972
G1 X63.152 Y119.714 E.02154
G1 X63.333 Y118.781 E.02982
G1 X63.658 Y117.887 E.02982
G1 X64.119 Y117.055 E.02982
G1 X65.079 Y115.931 E.04636
G1 X65.782 Y115.382 E.02794
G1 E-.7 F3600
;WIPE_START
G1 F7200
G1 X66.304 Y115.087 E-.285
;WIPE_END
G1 E-.015 F3600
G1 X238.638 Y120.905 F9000
G1 E1 F2400
;TYPE:Support material
G1 F1200
G1 X238.893 Y120.973 E.0083
G1 X239.133 Y121.085 E.0083
G1 X239.35 Y121.237 E.0083
G1 X239.537 Y121.424 E.0083
G1 X239.689 Y121.641 E.0083
G1 X239.801 Y121.881 E.0083
G1 X239.869 Y122.136 E.0083
G1 X239.894 Y122.421 E.00896
G1 X239.894 Y170.579 E1.50996
G1 X239.869 Y170.864 E.00896
G1 X239.801 Y171.119 E.0083
G1 X239.689 Y171.359 E.0083
G1 X239.537 Y171.576 E.0083
G1 X239.35 Y171.763 E.0083
G1 X239.133 Y171.915 E.0083
G1 X238.893 Y172.027 E.0083
G1 X238.638 Y172.095 E.0083
G1 X238.353 Y172.12 E.00896
G1 X207.364 Y172.12 E.97165
G1 X207.096 Y172.146 E.00842
G1 X206.848 Y172.216 E.00809
G1 X206.652 Y172.308 E.00678
G1 X206.407 Y172.48 E.0094
G1 X206.227 Y172.665 E.00809
G1 X206.103 Y172.842 E.00678
G1 X205.976 Y173.114 E.0094
G1 X205.92 Y173.322 E.00678
G1 X205.895 Y173.569 E.00776
G1 X205.894 Y187.579 E.43929
G1 X205.869 Y187.864 E.00896
G1 X205.801 Y188.119 E.0083
G1 X205.689 Y188.359 E.0083
G1 X205.537 Y188.576 E.0083
G1 X205.35 Y188.763 E.0083
G1 X205.133 Y188.915 E.0083
G1 X204.893 Y189.027 E.0083
G1 X204.638 Y189.095 E.0083
G1 X204.353 Y189.12 E.00896
G1 X105.195 Y189.12 E3.10903
G1 X104.91 Y189.095 E.00896
G1 X104.655 Y189.027 E.0083
G1 X104.415 Y188.915 E.0083
G1 X104.198 Y188.763 E.0083
G1 X104.011 Y188.576 E.0083
G1 X103.859 Y188.359 E.0083
G1 X103.747 Y188.119 E.0083
G1 X103.679 Y187.864 E.0083
G1 X103.654 Y187.579 E.00896
G1 X103.653 Y173.569 E.43929
G1 X103.628 Y173.322 E.00776
G1 X103.572 Y173.114 E.00678
G1 X103.445 Y172.842 E.0094
G1 X103.321 Y172.665 E.00678
G1 X103.141 Y172.48 E.00809
G1 X102.896 Y172.308 E.0094
G1 X102.7 Y172.216 E.00678
G1 X102.452 Y172.146 E.00809
G1 X102.184 Y172.12 E.00842
G1 X71.195 Y172.12 E.97165
G1 X70.91 Y172.095 E.00896
G1 X70.655 Y172.027 E.0083
G1 X70.415 Y171.915 E.0083
G1 X70.198 Y171.763 E.0083
G1 X70.011 Y171.576 E.0083
G1 X69.859 Y171.359 E.0083
G1 X69.747 Y171.119 E.0083
G1 X69.679 Y170.864 E.0083
G1 X69.654 Y170.579 E.00896
G1 X69.654 Y122.421 E1.50996
G1 X69.679 Y122.136 E.00896
G1 X69.747 Y121.881 E.0083
G1 X69.859 Y121.641 E.0083
G1 X70.011 Y121.424 E.0083
G1 X70.198 Y121.237 E.0083
G1 X70.415 Y121.085 E.0083
G1 X70.655 Y120.973 E.0083
G1 X70.91 Y120.905 E.0083
G1 X71.195 Y120.88 E.00896
G1 X238.353 Y120.88 E5.24112
G1 X238.581 Y120.9 E.00718
G1 E-.7 F3600
;WIPE_START
G1 F7200
G1 X238.353 Y120.88 E-.10883
G1 X237.982 Y120.88 E-.17617
;WIPE_END
G1 E-.015 F3600
G1 X195.493 Y176.728 F9000
G1 E1 F2400
G1 F1200
G1 X195.493 Y182.531 E.18194
G1 X201.296 Y182.531 E.18194
G1 X201.296 Y179.074 E.1084
G1 X198.951 Y179.074 E.07355
G1 X198.951 Y176.728 E.07355
G1 X195.55 Y176.728 E.10662
G1 X176.728 Y176.728 F9000
G1 F1200
G1 X176.728 Y182.531 E.18194
G1 X182.531 Y182.531 E.18194
G1 X182.531 Y176.728 E.18194
G1 X176.785 Y176.728 E.18017
G1 X160.308 Y176.728 F9000
G1 F1200
G1 X160.308 Y182.531 E.18194
G1 X166.111 Y182.531 E.18194
G1 X166.111 Y176.728 E.18194
G1 X160.365 Y176.728 E.18017
G1 X143.889 Y176.728 F9000
G1 F1200
G1 X143.889 Y182.531 E.18194
G1 X149.692 Y182.531 E.18194
G1 X149.692 Y176.728 E.18194
G1 X143.945 Y176.728 E.18017
G1 X127.469 Y176.728 F9000
G1 F1200
G1 X127.469 Y182.531 E.18194
G1 X133.272 Y182.531 E.18194
G1 X133.272 Y179.074 E.1084
G1 X130.926 Y179.074 E.07355
G1 X130.926 Y176.728 E.07355
G1 X127.526 Y176.728 E.10662
G1 X108.704 Y176.728 F9000
G1 F1200
G1 X108.704 Y182.531 E.18194
G1 X114.507 Y182.531 E.18194
G1 X114.507 Y176.728 E.18194
G1 X108.76 Y176.728 E.18017
G1 E-.7 F3600
;WIPE_START
G1 F7200
G1 X109.36 Y176.728 E-.285
;WIPE_END
G1 E-.015 F3600
G1 X143.889 Y160.308 F9000
G1 E1 F2400
G1 F1200
G1 X143.889 Y166.111 E.18194
G1 X149.692 Y166.111 E.18194
G1 X149.692 Y160.308 E.18194
G1 X143.945 Y160.308 E.18017
G1 X228.333 Y160.308 F9000
G1 F1200
G1 X228.333 Y166.111 E.18194
G1 X234.136 Y166.111 E.18194
G1 X234.136 Y160.308 E.18194
G1 X228.389 Y160.308 E.18017
G1 X195.493 Y160.308 F9000
G1 F1200
G1 X195.493 Y166.111 E.18194
G1 X201.296 Y166.111 E.18194
G1 X201.296 Y160.308 E.18194
G1 X195.55 Y160.308 E.18017
G1 X176.728 Y160.308 F9000
G1 F1200
G1 X176.728 Y166.111 E.18194
G1 X182.531 Y166.111 E.18194
G1 X182.531 Y160.308 E.18194
G1 X176.785 Y160.308 E.18017
G1 X211.913 Y160.308 F9000
G1 F1200
G1 X211.913 Y166.111 E.18194
G1 X217.716 Y166.111 E.18194
G1 X217.716 Y160.308 E.18194
G1 X211.97 Y160.308 E.18017
G1 X75.865 Y160.308 F9000
G1 F1200
G1 X75.865 Y166.111 E.18194
G1 X81.667 Y166.111 E.18194
G1 X81.667 Y160.308 E.18194
G1 X75.921 Y160.308 E.18017
G1 X108.704 Y160.308 F9000
G1 F1200
G1 X108.704 Y166.111 E.18194
G1 X114.507 Y166.111 E.18194
G1 X114.507 Y160.308 E.18194
G1 X108.76 Y160.308 E.18017
G1 X92.284 Y160.308 F9000
G1 F1200
G1 X92.284 Y166.111 E.18194
G1 X98.087 Y166.111 E.18194
G1 X98.087 Y160.308 E.18194
G1 X92.341 Y160.308 E.18017
G1 X160.308 Y160.308 F9000
G1 F1200
G1 X160.308 Y166.111 E.18194
G1 X166.111 Y166.111 E.18194
G1 X166.111 Y160.308 E.18194
G1 X160.365 Y160.308 E.18017
G1 X127.469 Y160.308 F9000
G1 F1200
G1 X127.469 Y166.111 E.18194
G1 X133.272 Y166.111 E.18194
G1 X133.272 Y160.308 E.18194
G1 X127.526 Y160.308 E.18017
G1 E-.7 F3600
;WIPE_START
G1 F7200
G1 X128.126 Y160.308 E-.285
;WIPE_END
G1 E-.015 F3600
G1 X92.284 Y143.889 F9000
G1 E1 F2400
G1 F1200
G1 X92.284 Y149.692 E.18194
G1 X98.087 Y149.692 E.18194
G1 X98.087 Y143.889 E.18194
G1 X92.341 Y143.889 E.18017
G1 X176.728 Y143.889 F9000
G1 F1200
G1 X176.728 Y149.692 E.18194
G1 X182.531 Y149.692 E.18194
G1 X182.531 Y143.889 E.18194
G1 X176.785 Y143.889 E.18017
G1 X108.704 Y143.889 F9000
G1 F1200
G1 X108.704 Y149.692 E.18194
G1 X114.507 Y149.692 E.18194
G1 X114.507 Y143.889 E.18194
G1 X108.76 Y143.889 E.18017
G1 X127.469 Y143.889 F9000
G1 F1200
G1 X127.469 Y149.692 E.18194
G1 X133.272 Y149.692 E.18194
G1 X133.272 Y143.889 E.18194
G1 X127.526 Y143.889 E.18017
G1 X143.889 Y143.889 F9000
G1 F1200
G1 X143.889 Y149.692 E.18194
G1 X149.692 Y149.692 E.18194
G1 X149.692 Y143.889 E.18194
G1 X143.945 Y143.889 E.18017
G1 X160.308 Y143.889 F9000
G1 F1200
G1 X160.308 Y149.692 E.18194
G1 X166.111 Y149.692 E.18194
G1 X166.111 Y143.889 E.18194
G1 X160.365 Y143.889 E.18017
G1 X211.913 Y143.889 F9000
G1 F1200
G1 X211.913 Y149.692 E.18194
G1 X217.716 Y149.692 E.18194
G1 X217.716 Y143.889 E.18194
G1 X211.97 Y143.889 E.18017
G1 X195.493 Y143.889 F9000
G1 F1200
G1 X195.493 Y149.692 E.18194
G1 X201.296 Y149.692 E.18194
G1 X201.296 Y143.889 E.18194
G1 X195.55 Y143.889 E.18017
G1 X228.333 Y143.889 F9000
G1 F1200
G1 X228.333 Y149.692 E.18194
G1 X234.136 Y149.692 E.18194
G1 X234.136 Y143.889 E.18194
G1 X228.389 Y143.889 E.18017
G1 X75.865 Y143.889 F9000
G1 F1200
G1 X75.865 Y149.692 E.18194
G1 X81.667 Y149.692 E.18194
G1 X81.667 Y143.889 E.18194
G1 X75.921 Y143.889 E.18017
G1 E-.7 F3600
;WIPE_START
G1 F7200
G1 X76.521 Y143.889 E-.285
;WIPE_END
G1 E-.015 F3600
G1 X143.889 Y127.469 F9000
G1 E1 F2400
G1 F1200
G1 X143.889 Y133.272 E.18194
G1 X149.692 Y133.272 E.18194
G1 X149.692 Y127.469 E.18194
G1 X143.945 Y127.469 E.18017
G1 X160.308 Y127.469 F9000
G1 F1200
G1 X160.308 Y133.272 E.18194
G1 X166.111 Y133.272 E.18194
G1 X166.111 Y127.469 E.18194
G1 X160.365 Y127.469 E.18017
G1 X127.469 Y127.469 F9000
G1 F1200
G1 X127.469 Y133.272 E.18194
G1 X130.926 Y133.272 E.1084
G1 X130.926 Y130.926 E.07355
G1 X133.272 Y130.926 E.07355
G1 X133.272 Y127.469 E.1084
G1 X127.526 Y127.469 E.18017
G1 X108.704 Y127.469 F9000
G1 F1200
G1 X108.704 Y133.272 E.18194
G1 X114.507 Y133.272 E.18194
G1 X114.507 Y127.469 E.18194
G1 X108.76 Y127.469 E.18017
G1 X92.284 Y127.469 F9000
G1 F1200
G1 X92.284 Y133.272 E.18194
G1 X98.087 Y133.272 E.18194
G1 X98.087 Y127.469 E.18194
G1 X92.341 Y127.469 E.18017
G1 X75.865 Y127.469 F9000
G1 F1200
G1 X75.865 Y133.272 E.18194
G1 X81.667 Y133.272 E.18194
G1 X81.667 Y127.469 E.18194
G1 X75.921 Y127.469 E.18017
G1 X228.333 Y127.469 F9000
G1 F1200
G1 X228.333 Y133.272 E.18194
G1 X234.136 Y133.272 E.18194
G1 X234.136 Y127.469 E.18194
G1 X228.389 Y127.469 E.18017
G1 X211.913 Y127.469 F9000
G1 F1200
G1 X211.913 Y133.272 E.18194
G1 X217.716 Y133.272 E.18194
G1 X217.716 Y127.469 E.18194
G1 X211.97 Y127.469 E.18017
G1 X195.493 Y127.469 F9000
G1 F1200
G1 X195.493 Y133.272 E.18194
G1 X198.951 Y133.272 E.1084
G1 X198.951 Y130.926 E.07355
G1 X201.296 Y130.926 E.07355
G1 X201.296 Y127.469 E.1084
G1 X195.55 Y127.469 E.18017
G1 X176.728 Y127.469 F9000
G1 F1200
G1 X176.728 Y133.272 E.18194
G1 X182.531 Y133.272 E.18194
G1 X182.531 Y127.469 E.18194
G1 X176.785 Y127.469 E.18017
G1 E-.7 F3600
;WIPE_START
G1 F7200
G1 X177.385 Y127.469 E-.285
;WIPE_END
G1 E-.015 F3600
G1 X239.214 Y171.651 F9000
G1 E1 F2400
G1 F1200
G1 X239.214 Y121.581 E1.56989
G1 X239.131 Y121.498 E.0037
G1 X238.963 Y121.38 E.00644
G1 X238.795 Y121.302 E.00579
G1 X238.795 Y171.698 E1.58012
G1 X238.578 Y171.76 E.00707
G1 X238.376 Y171.777 E.00636
G1 X238.376 Y121.223 E1.5851
G1 X237.957 Y121.219 E.01314
G1 X237.957 Y171.781 E1.58531
G1 X237.538 Y171.781 E.01314
G1 X237.538 Y121.219 E1.58531
G1 X237.119 Y121.219 E.01314
G1 X237.119 Y171.781 E1.58531
G1 X236.701 Y171.781 E.01314
G1 X236.701 Y121.219 E1.58531
G1 X236.282 Y121.219 E.01314
G1 X236.282 Y171.781 E1.58531
G1 X235.863 Y171.781 E.01314
G1 X235.863 Y121.219 E1.58531
G1 X235.444 Y121.219 E.01314
G1 X235.444 Y171.781 E1.58531
G1 X235.025 Y171.781 E.01314
G1 X235.025 Y121.219 E1.58531
G1 X234.606 Y121.219 E.01314
G1 X234.606 Y171.781 E1.58531
G1 X234.187 Y171.781 E.01314
G1 X234.187 Y166.451 E.16712
G1 X233.768 Y166.451 E.01314
G1 X233.768 Y171.781 E.16712
G1 X233.349 Y171.781 E.01314
G1 X233.349 Y166.451 E.16712
G1 X232.93 Y166.451 E.01314
G1 X232.93 Y171.781 E.16712
G1 X232.511 Y171.781 E.01314
G1 X232.511 Y166.451 E.16712
G1 X232.092 Y166.451 E.01314
G1 X232.092 Y171.781 E.16712
G1 X231.673 Y171.781 E.01314
G1 X231.673 Y166.451 E.16712
G1 X231.254 Y166.451 E.01314
G1 X231.254 Y171.781 E.16712
G1 X230.835 Y171.781 E.01314
G1 X230.835 Y166.451 E.16712
G1 X230.416 Y166.451 E.01314
G1 X230.416 Y171.781 E.16712
G1 X229.997 Y171.781 E.01314
G1 X229.997 Y166.451 E.16712
G1 X229.578 Y166.451 E.01314
G1 X229.578 Y171.781 E.16712
G1 X229.159 Y171.781 E.01314
G1 X229.159 Y166.451 E.16712
G1 X228.74 Y166.451 E.01314
G1 X228.74 Y171.781 E.16712
G1 X228.321 Y171.781 E.01314
G1 X228.321 Y166.451 E.16712
G1 X227.993 Y166.451 E.01027
G1 X227.993 Y159.969 E.20323
G1 X228.321 Y159.969 E.01027
G1 X228.321 Y150.031 E.3116
G1 X228.74 Y150.031 E.01314
G1 X228.74 Y159.969 E.3116
G1 X229.159 Y159.969 E.01314
G1 X229.159 Y150.031 E.3116
G1 X229.578 Y150.031 E.01314
G1 X229.578 Y159.969 E.3116
G1 X229.997 Y159.969 E.01314
G1 X229.997 Y150.031 E.3116
G1 X230.416 Y150.031 E.01314
G1 X230.416 Y159.969 E.3116
G1 X230.835 Y159.969 E.01314
G1 X230.835 Y150.031 E.3116
G1 X231.254 Y150.031 E.01314
G1 X231.254 Y159.969 E.3116
G1 X231.673 Y159.969 E.01314
G1 X231.673 Y150.031 E.3116
G1 X232.092 Y150.031 E.01314
G1 X232.092 Y159.969 E.3116
G1 X232.511 Y159.969 E.01314
G1 X232.511 Y150.031 E.3116
G1 X232.93 Y150.031 E.01314
G1 X232.93 Y159.969 E.3116
G1 X233.349 Y159.969 E.01314
G1 X233.349 Y150.031 E.3116
G1 X233.768 Y150.031 E.01314
G1 X233.768 Y159.969 E.3116
G1 X234.187 Y159.969 E.01314
G1 X234.187 Y150.031 E.3116
G1 X234.475 Y150.031 E.00904
G1 X234.475 Y143.549 E.20323
G1 X234.187 Y143.549 E.00904
G1 X234.187 Y133.611 E.3116
G1 X233.768 Y133.611 E.01314
G1 X233.768 Y143.549 E.3116
G1 X233.349 Y143.549 E.01314
G1 X233.349 Y133.611 E.3116
G1 X232.93 Y133.611 E.01314
G1 X232.93 Y143.549 E.3116
G1 X232.511 Y143.549 E.01314
G1 X232.511 Y133.611 E.3116
G1 X232.092 Y133.611 E.01314
G1 X232.092 Y143.549 E.3116
G1 X231.673 Y143.549 E.01314
G1 X231.673 Y133.611 E.3116
G1 X231.254 Y133.611 E.01314
G1 X231.254 Y143.549 E.3116
G1 X230.835 Y143.549 E.01314
G1 X230.835 Y133.611 E.3116
G1 X230.416 Y133.611 E.01314
G1 X230.416 Y143.549 E.3116
G1 X229.997 Y143.549 E.01314
G1 X229.997 Y133.611 E.3116
G1 X229.578 Y133.611 E.01314
G1 X229.578 Y143.549 E.3116
G1 X229.159 Y143.549 E.01314
G1 X229.159 Y133.611 E.3116
G1 X228.74 Y133.611 E.01314
G1 X228.74 Y143.549 E.3116
G1 X228.321 Y143.549 E.01314
G1 X228.321 Y133.611 E.3116
G1 X227.993 Y133.611 E.01027
G1 X227.993 Y127.13 E.20323
G1 X228.321 Y127.13 E.01027
G1 X228.321 Y121.219 E.18532
G1 X228.74 Y121.219 E.01314
G1 X228.74 Y127.13 E.18532
G1 X229.159 Y127.13 E.01314
G1 X229.159 Y121.219 E.18532
G1 X229.578 Y121.219 E.01314
G1 X229.578 Y127.13 E.18532
G1 X229.997 Y127.13 E.01314
G1 X229.997 Y121.219 E.18532
G1 X230.416 Y121.219 E.01314
G1 X230.416 Y127.13 E.18532
G1 X230.835 Y127.13 E.01314
G1 X230.835 Y121.219 E.18532
G1 X231.254 Y121.219 E.01314
G1 X231.254 Y127.13 E.18532
G1 X231.673 Y127.13 E.01314
G1 X231.673 Y121.219 E.18532
G1 X232.092 Y121.219 E.01314
G1 X232.092 Y127.13 E.18532
G1 X232.511 Y127.13 E.01314
G1 X232.511 Y121.219 E.18532
G1 X232.93 Y121.219 E.01314
G1 X232.93 Y127.13 E.18532
G1 X233.349 Y127.13 E.01314
G1 X233.349 Y121.219 E.18532
G1 X233.768 Y121.219 E.01314
G1 X233.768 Y127.13 E.18532
G1 X234.187 Y127.13 E.01314
G1 X234.187 Y121.05 E.19064
G1 E-.7 F3600
;WIPE_START
G1 F7200
G1 X234.187 Y121.65 E-.285
;WIPE_END
G1 E-.015 F3600
G1 X227.902 Y171.95 F9000
G1 E1 F2400
G1 F1200
G1 X227.902 Y121.219 E1.59063
G1 X227.483 Y121.219 E.01314
G1 X227.483 Y171.781 E1.58531
G1 X227.064 Y171.781 E.01314
G1 X227.064 Y121.219 E1.58531
G1 X226.645 Y121.219 E.01314
G1 X226.645 Y171.781 E1.58531
G1 X226.226 Y171.781 E.01314
G1 X226.226 Y121.219 E1.58531
G1 X225.807 Y121.219 E.01314
G1 X225.807 Y171.781 E1.58531
G1 X225.388 Y171.781 E.01314
G1 X225.388 Y121.219 E1.58531
G1 X224.969 Y121.219 E.01314
G1 X224.969 Y171.781 E1.58531
G1 X224.55 Y171.781 E.01314
G1 X224.55 Y121.219 E1.58531
