; generated by PrusaSlicer 2.4.2+arm64 on 2022-12-21 at 17:03:28 UTC

; 

; external perimeters extrusion width = 0.45mm
; perimeters extrusion width = 0.45mm
; infill extrusion width = 0.45mm
; solid infill extrusion width = 0.45mm
; top infill extrusion width = 0.40mm
; support material extrusion width = 0.38mm
; first layer extrusion width = 0.42mm

M107
;TYPE:Custom
G90 ; use absolute coordinates
M83 ; extruder relative mode
M140 S60 ; set final bed temp
M104 S150 ; set temporary nozzle temp to prevent oozing during homing
G4 S10 ; allow partial nozzle warmup
G28 ; home all axis
G29 ; autolevel
G1 Z50 F240
; backup G1 X2 Y10 F3000
G1 X0 Y0 F3000 ; replacement - try to pee filament in the corner of the bed
M104 S210 ; set final nozzle temp
M190 S60 ; wait for bed temp to stabilize
M109 S210 ; wait for nozzle temp to stabilize
G1 Z0.28 F240
G92 E0
G1 Y140 E10 F1500 ; prime the nozzle
G1 X2.3 F5000
G92 E0
G1 Y10 E10 F1200 ; prime the nozzle
G92 E0
G21 ; set units to millimeters
G90 ; use absolute coordinates
M83 ; use relative distances for extrusion
; Filament gcode
M107
;LAYER_CHANGE
;Z:0.2
;HEIGHT:0.2
;BEFORE_LAYER_CHANGE
G92 E0
;0.2


G1 E-1 F3600
G1 Z.2 F9000
;AFTER_LAYER_CHANGE
;0.2
G1 X68.246 Y115.17
G1 E1 F2400
M204 S500
;TYPE:Skirt/Brim
;WIDTH:0.42
G1 F1200
G1 X69.643 Y114.716 E.04605
G1 X70.901 Y114.586 E.03964
G1 X242.588 Y114.596 E5.38313
G1 X244.038 Y114.826 E.04604
G1 X244.977 Y115.17 E.03135
G1 X246.279 Y115.968 E.04789
G1 X247.012 Y116.648 E.03135
G1 X247.875 Y117.836 E.04604
G1 X248.296 Y118.743 E.03136
G1 X248.57 Y119.705 E.03135
G1 X248.7 Y120.963 E.03965
G1 X248.689 Y190.428 E2.17802
G1 X248.46 Y191.878 E.04605
G1 X248.116 Y192.817 E.03135
G1 X247.629 Y193.691 E.03135
G1 X246.637 Y194.852 E.04789
G1 X245.851 Y195.469 E.03135
G1 X244.977 Y195.956 E.03135
G1 X243.58 Y196.409 E.04605
G1 X242.323 Y196.54 E.03964
G1 X70.901 Y196.54 E5.37482
G1 X70.166 Y196.492 E.02307
G1 X69.185 Y196.3 E.03135
G1 X68.246 Y195.956 E.03135
G1 X67.373 Y195.469 E.03135
G1 X66.586 Y194.852 E.03135
G1 X65.906 Y194.119 E.03135
G1 X65.108 Y192.817 E.04789
G1 X64.654 Y191.42 E.04605
G1 X64.524 Y190.163 E.03964
G1 X64.534 Y120.698 E2.17803
G1 X64.654 Y119.705 E.03135
G1 X64.927 Y118.743 E.03135
G1 X65.594 Y117.435 E.04605
G1 X66.211 Y116.648 E.03135
G1 X66.944 Y115.968 E.03135
G1 X68.195 Y115.201 E.04601
G1 E-.7 F3600
;WIPE_START
G1 F7200
G1 X68.764 Y115.01 E-.285
;WIPE_END
G1 E-.015 F3600
G1 X240.586 Y121.468 F9000
G1 E1 F2400
;TYPE:Support material
G1 F1200
G1 X240.842 Y121.536 E.0083
G1 X241.082 Y121.648 E.0083
G1 X241.299 Y121.8 E.0083
G1 X241.486 Y121.987 E.0083
G1 X241.638 Y122.204 E.0083
G1 X241.749 Y122.443 E.0083
G1 X241.818 Y122.699 E.0083
G1 X241.843 Y122.984 E.00896
G1 X241.843 Y170.542 E1.49115
G1 X241.818 Y170.826 E.00896
G1 X241.749 Y171.082 E.0083
G1 X241.638 Y171.322 E.0083
G1 X241.486 Y171.539 E.0083
G1 X241.299 Y171.726 E.0083
G1 X241.082 Y171.877 E.0083
G1 X240.842 Y171.989 E.0083
G1 X240.586 Y172.058 E.0083
G1 X240.302 Y172.083 E.00896
G1 X209.312 Y172.083 E.97165
G1 X209.045 Y172.109 E.00842
G1 X208.797 Y172.179 E.00809
G1 X208.601 Y172.27 E.00678
G1 X208.355 Y172.442 E.0094
G1 X208.176 Y172.627 E.00809
G1 X208.052 Y172.805 E.00678
G1 X207.925 Y173.076 E.0094
G1 X207.869 Y173.285 E.00678
G1 X207.844 Y173.531 E.00776
G1 X207.843 Y188.142 E.4581
G1 X207.818 Y188.426 E.00896
G1 X207.749 Y188.682 E.0083
G1 X207.638 Y188.922 E.0083
G1 X207.486 Y189.139 E.0083
G1 X207.299 Y189.326 E.0083
G1 X207.082 Y189.477 E.0083
G1 X206.842 Y189.589 E.0083
G1 X206.586 Y189.658 E.0083
G1 X206.302 Y189.683 E.00896
G1 X106.922 Y189.683 E3.116
G1 X106.637 Y189.658 E.00896
G1 X106.381 Y189.589 E.0083
G1 X106.141 Y189.477 E.0083
G1 X105.925 Y189.326 E.0083
G1 X105.738 Y189.139 E.0083
G1 X105.586 Y188.922 E.0083
G1 X105.474 Y188.682 E.0083
G1 X105.405 Y188.426 E.0083
G1 X105.381 Y188.142 E.00896
G1 X105.38 Y173.531 E.4581
G1 X105.354 Y173.285 E.00776
G1 X105.298 Y173.076 E.00678
G1 X105.172 Y172.805 E.0094
G1 X105.048 Y172.627 E.00678
G1 X104.868 Y172.442 E.00809
G1 X104.622 Y172.27 E.0094
G1 X104.387 Y172.165 E.00809
G1 X104.178 Y172.109 E.00678
G1 X103.911 Y172.083 E.00842
G1 X72.922 Y172.083 E.97165
G1 X72.637 Y172.058 E.00896
G1 X72.381 Y171.989 E.0083
G1 X72.141 Y171.877 E.0083
G1 X71.925 Y171.726 E.0083
G1 X71.738 Y171.539 E.0083
G1 X71.586 Y171.322 E.0083
G1 X71.474 Y171.082 E.0083
G1 X71.405 Y170.826 E.0083
G1 X71.381 Y170.542 E.00896
G1 X71.381 Y122.984 E1.49115
G1 X71.405 Y122.699 E.00896
G1 X71.474 Y122.443 E.0083
G1 X71.586 Y122.204 E.0083
G1 X71.738 Y121.987 E.0083
G1 X71.925 Y121.8 E.0083
G1 X72.142 Y121.648 E.0083
G1 X72.381 Y121.536 E.0083
G1 X72.637 Y121.468 E.0083
G1 X72.922 Y121.443 E.00896
G1 X240.302 Y121.443 E5.24809
G1 X240.53 Y121.463 E.00718
G1 E-.7 F3600
;WIPE_START
G1 F7200
G1 X240.302 Y121.443 E-.10883
G1 X239.931 Y121.443 E-.17617
;WIPE_END
G1 E-.015 F3600
G1 X197.105 Y177.291 F9000
G1 E1 F2400
G1 F1200
G1 X197.105 Y183.094 E.18194
G1 X202.908 Y183.094 E.18194
G1 X202.908 Y177.291 E.18194
G1 X197.162 Y177.291 E.18017
G1 X178.34 Y177.291 F9000
G1 F1200
G1 X178.34 Y183.094 E.18194
G1 X184.143 Y183.094 E.18194
G1 X184.143 Y177.291 E.18194
G1 X178.396 Y177.291 E.18017
G1 X161.92 Y177.291 F9000
G1 F1200
G1 X161.92 Y183.094 E.18194
G1 X167.723 Y183.094 E.18194
G1 X167.723 Y177.291 E.18194
G1 X161.977 Y177.291 E.18017
G1 X145.5 Y177.291 F9000
G1 F1200
G1 X145.5 Y183.094 E.18194
G1 X151.303 Y183.094 E.18194
G1 X151.303 Y177.291 E.18194
G1 X145.557 Y177.291 E.18017
G1 X129.081 Y177.291 F9000
G1 F1200
G1 X129.081 Y183.094 E.18194
G1 X134.884 Y183.094 E.18194
G1 X134.884 Y177.291 E.18194
G1 X129.137 Y177.291 E.18017
G1 X110.316 Y177.291 F9000
G1 F1200
G1 X110.316 Y183.094 E.18194
G1 X116.118 Y183.094 E.18194
G1 X116.118 Y177.291 E.18194
G1 X110.372 Y177.291 E.18017
G1 E-.7 F3600
;WIPE_START
G1 F7200
G1 X110.972 Y177.291 E-.285
;WIPE_END
G1 E-.015 F3600
G1 X145.5 Y160.871 F9000
G1 E1 F2400
G1 F1200
G1 X145.5 Y166.674 E.18194
G1 X151.303 Y166.674 E.18194
G1 X151.303 Y160.871 E.18194
G1 X145.557 Y160.871 E.18017
G1 X129.081 Y160.871 F9000
G1 F1200
G1 X129.081 Y166.674 E.18194
G1 X134.884 Y166.674 E.18194
G1 X134.884 Y160.871 E.18194
G1 X129.137 Y160.871 E.18017
G1 X229.944 Y160.871 F9000
G1 F1200
G1 X229.944 Y166.674 E.18194
G1 X235.747 Y166.674 E.18194
G1 X235.747 Y160.871 E.18194
G1 X230.001 Y160.871 E.18017
G1 X213.525 Y160.871 F9000
G1 F1200
G1 X213.525 Y166.674 E.18194
G1 X219.328 Y166.674 E.18194
G1 X219.328 Y160.871 E.18194
G1 X213.581 Y160.871 E.18017
G1 X110.316 Y160.871 F9000
G1 F1200
G1 X110.316 Y166.674 E.18194
G1 X116.118 Y166.674 E.18194
G1 X116.118 Y160.871 E.18194
G1 X110.372 Y160.871 E.18017
G1 X93.896 Y160.871 F9000
G1 F1200
G1 X93.896 Y166.674 E.18194
G1 X99.699 Y166.674 E.18194
G1 X99.699 Y160.871 E.18194
G1 X93.952 Y160.871 E.18017
G1 X77.476 Y160.871 F9000
G1 F1200
G1 X77.476 Y166.674 E.18194
G1 X83.279 Y166.674 E.18194
G1 X83.279 Y160.871 E.18194
G1 X77.533 Y160.871 E.18017
G1 X161.92 Y160.871 F9000
G1 F1200
G1 X161.92 Y166.674 E.18194
G1 X167.723 Y166.674 E.18194
G1 X167.723 Y160.871 E.18194
G1 X161.977 Y160.871 E.18017
G1 X178.34 Y160.871 F9000
G1 F1200
G1 X178.34 Y166.674 E.18194
G1 X184.143 Y166.674 E.18194
G1 X184.143 Y160.871 E.18194
G1 X178.396 Y160.871 E.18017
G1 X197.105 Y160.871 F9000
G1 F1200
G1 X197.105 Y166.674 E.18194
G1 X202.908 Y166.674 E.18194
G1 X202.908 Y160.871 E.18194
G1 X197.162 Y160.871 E.18017
G1 X197.105 Y144.451 F9000
G1 F1200
G1 X197.105 Y150.254 E.18194
G1 X202.908 Y150.254 E.18194
G1 X202.908 Y144.451 E.18194
G1 X197.162 Y144.451 E.18017
G1 X178.34 Y144.451 F9000
G1 F1200
G1 X178.34 Y150.254 E.18194
G1 X184.143 Y150.254 E.18194
G1 X184.143 Y144.451 E.18194
G1 X178.396 Y144.451 E.18017
G1 X161.92 Y144.451 F9000
G1 F1200
G1 X161.92 Y150.254 E.18194
G1 X167.723 Y150.254 E.18194
G1 X167.723 Y144.451 E.18194
G1 X161.977 Y144.451 E.18017
G1 X145.5 Y144.451 F9000
G1 F1200
G1 X145.5 Y150.254 E.18194
G1 X151.303 Y150.254 E.18194
G1 X151.303 Y144.451 E.18194
G1 X145.557 Y144.451 E.18017
G1 X129.081 Y144.451 F9000
G1 F1200
G1 X129.081 Y150.254 E.18194
G1 X134.884 Y150.254 E.18194
G1 X134.884 Y144.451 E.18194
G1 X129.137 Y144.451 E.18017
G1 X110.316 Y144.451 F9000
G1 F1200
G1 X110.316 Y150.254 E.18194
G1 X116.118 Y150.254 E.18194
G1 X116.118 Y144.451 E.18194
G1 X110.372 Y144.451 E.18017
G1 X93.896 Y144.451 F9000
G1 F1200
G1 X93.896 Y150.254 E.18194
G1 X99.699 Y150.254 E.18194
G1 X99.699 Y144.451 E.18194
G1 X93.952 Y144.451 E.18017
G1 X77.476 Y144.451 F9000
G1 F1200
G1 X77.476 Y150.254 E.18194
G1 X83.279 Y150.254 E.18194
G1 X83.279 Y144.451 E.18194
G1 X77.533 Y144.451 E.18017
G1 X229.944 Y144.451 F9000
G1 F1200
G1 X229.944 Y150.254 E.18194
G1 X235.747 Y150.254 E.18194
G1 X235.747 Y144.451 E.18194
G1 X230.001 Y144.451 E.18017
G1 X213.525 Y144.451 F9000
G1 F1200
G1 X213.525 Y150.254 E.18194
G1 X219.328 Y150.254 E.18194
G1 X219.328 Y144.451 E.18194
G1 X213.581 Y144.451 E.18017
G1 E-.7 F3600
;WIPE_START
G1 F7200
G1 X214.181 Y144.451 E-.285
;WIPE_END
G1 E-.015 F3600
G1 X197.105 Y128.032 F9000
G1 E1 F2400
G1 F1200
G1 X197.105 Y133.835 E.18194
G1 X202.908 Y133.835 E.18194
G1 X202.908 Y128.032 E.18194
G1 X197.162 Y128.032 E.18017
G1 X178.34 Y128.032 F9000
G1 F1200
G1 X178.34 Y133.835 E.18194
G1 X184.143 Y133.835 E.18194
G1 X184.143 Y128.032 E.18194
G1 X178.396 Y128.032 E.18017
G1 X161.92 Y128.032 F9000
G1 F1200
G1 X161.92 Y133.835 E.18194
G1 X167.723 Y133.835 E.18194
G1 X167.723 Y128.032 E.18194
G1 X161.977 Y128.032 E.18017
G1 X145.5 Y128.032 F9000
G1 F1200
G1 X145.5 Y133.835 E.18194
G1 X151.303 Y133.835 E.18194
G1 X151.303 Y128.032 E.18194
G1 X145.557 Y128.032 E.18017
G1 X129.081 Y128.032 F9000
G1 F1200
G1 X129.081 Y133.835 E.18194
G1 X134.884 Y133.835 E.18194
G1 X134.884 Y128.032 E.18194
G1 X129.137 Y128.032 E.18017
G1 X110.316 Y128.032 F9000
G1 F1200
G1 X110.316 Y133.835 E.18194
G1 X116.118 Y133.835 E.18194
G1 X116.118 Y128.032 E.18194
G1 X110.372 Y128.032 E.18017
G1 X93.896 Y128.032 F9000
G1 F1200
G1 X93.896 Y133.835 E.18194
G1 X99.699 Y133.835 E.18194
G1 X99.699 Y128.032 E.18194
G1 X93.952 Y128.032 E.18017
G1 X77.476 Y128.032 F9000
G1 F1200
G1 X77.476 Y133.835 E.18194
G1 X83.279 Y133.835 E.18194
G1 X83.279 Y128.032 E.18194
G1 X77.533 Y128.032 E.18017
G1 X229.944 Y128.032 F9000
G1 F1200
G1 X229.944 Y133.835 E.18194
G1 X235.747 Y133.835 E.18194
G1 X235.747 Y128.032 E.18194
G1 X230.001 Y128.032 E.18017
G1 X213.525 Y128.032 F9000
G1 F1200
G1 X213.525 Y133.835 E.18194
G1 X219.328 Y133.835 E.18194
G1 X219.328 Y128.032 E.18194
G1 X213.581 Y128.032 E.18017
G1 E-.7 F3600
;WIPE_START
G1 F7200
G1 X214.181 Y128.032 E-.285
;WIPE_END
G1 E-.015 F3600
G1 X241.245 Y171.539 F9000
G1 E1 F2400
G1 F1200
G1 X241.245 Y122.235 E1.54591
G1 X241.08 Y122.061 E.00753
G1 X240.826 Y121.903 E.00936
G1 X240.826 Y171.622 E1.55891
G1 X240.726 Y171.669 E.00348
G1 X240.527 Y171.722 E.00644
G1 X240.407 Y171.733 E.00378
G1 X240.407 Y121.793 E1.56584
G1 X239.988 Y121.782 E.01314
G1 X239.988 Y171.743 E1.5665
G1 X239.569 Y171.743 E.01314
G1 X239.569 Y121.782 E1.5665
G1 X239.15 Y121.782 E.01314
G1 X239.15 Y171.743 E1.5665
G1 X238.731 Y171.743 E.01314
G1 X238.731 Y121.782 E1.5665
G1 X238.312 Y121.782 E.01314
G1 X238.312 Y171.743 E1.5665
G1 X237.893 Y171.743 E.01314
G1 X237.893 Y121.782 E1.5665
G1 X237.474 Y121.782 E.01314
G1 X237.474 Y171.743 E1.5665
G1 X237.055 Y171.743 E.01314
G1 X237.055 Y121.782 E1.5665
G1 X236.636 Y121.782 E.01314
G1 X236.636 Y171.743 E1.5665
G1 X236.217 Y171.743 E.01314
G1 X236.217 Y121.782 E1.5665
G1 X235.798 Y121.782 E.01314
G1 X235.798 Y127.692 E.18532
G1 X235.379 Y127.692 E.01314
G1 X235.379 Y121.782 E.18532
G1 X234.96 Y121.782 E.01314
G1 X234.96 Y127.692 E.18532
G1 X234.541 Y127.692 E.01314
G1 X234.541 Y121.782 E.18532
G1 X234.122 Y121.782 E.01314
G1 X234.122 Y127.692 E.18532
G1 X233.703 Y127.692 E.01314
G1 X233.703 Y121.782 E.18532
G1 X233.284 Y121.782 E.01314
G1 X233.284 Y127.692 E.18532
G1 X232.866 Y127.692 E.01314
G1 X232.866 Y121.782 E.18532
G1 X232.447 Y121.782 E.01314
G1 X232.447 Y127.692 E.18532
G1 X232.028 Y127.692 E.01314
G1 X232.028 Y121.782 E.18532
G1 X231.609 Y121.782 E.01314
G1 X231.609 Y127.692 E.18532
G1 X231.19 Y127.692 E.01314
G1 X231.19 Y121.782 E.18532
G1 X230.771 Y121.782 E.01314
G1 X230.771 Y127.692 E.18532
G1 X230.352 Y127.692 E.01314
G1 X230.352 Y121.782 E.18532
G1 X229.933 Y121.782 E.01314
G1 X229.933 Y127.692 E.18532
G1 X229.605 Y127.692 E.01027
G1 X229.605 Y134.174 E.20323
G1 X229.933 Y134.174 E.01027
G1 X229.933 Y144.112 E.3116
G1 X230.352 Y144.112 E.01314
G1 X230.352 Y134.174 E.3116
G1 X230.771 Y134.174 E.01314
G1 X230.771 Y144.112 E.3116
G1 X231.19 Y144.112 E.01314
G1 X231.19 Y134.174 E.3116
G1 X231.609 Y134.174 E.01314
G1 X231.609 Y144.112 E.3116
G1 X232.028 Y144.112 E.01314
G1 X232.028 Y134.174 E.3116
G1 X232.447 Y134.174 E.01314
G1 X232.447 Y144.112 E.3116
G1 X232.866 Y144.112 E.01314
G1 X232.866 Y134.174 E.3116
G1 X233.284 Y134.174 E.01314
G1 X233.284 Y144.112 E.3116
G1 X233.703 Y144.112 E.01314
G1 X233.703 Y134.174 E.3116
G1 X234.122 Y134.174 E.01314
G1 X234.122 Y144.112 E.3116
G1 X234.541 Y144.112 E.01314
G1 X234.541 Y134.174 E.3116
G1 X234.96 Y134.174 E.01314
G1 X234.96 Y144.112 E.3116
G1 X235.379 Y144.112 E.01314
G1 X235.379 Y134.174 E.3116
G1 X235.798 Y134.174 E.01314
G1 X235.798 Y144.112 E.3116
G1 X236.087 Y144.112 E.00904
G1 X236.087 Y150.594 E.20323
G1 X235.798 Y150.594 E.00904
G1 X235.798 Y160.532 E.3116
G1 X235.379 Y160.532 E.01314
G1 X235.379 Y150.594 E.3116
G1 X234.96 Y150.594 E.01314
G1 X234.96 Y160.532 E.3116
G1 X234.541 Y160.532 E.01314
G1 X234.541 Y150.594 E.3116
G1 X234.122 Y150.594 E.01314
G1 X234.122 Y160.532 E.3116
G1 X233.703 Y160.532 E.01314
G1 X233.703 Y150.594 E.3116
G1 X233.284 Y150.594 E.01314
G1 X233.284 Y160.532 E.3116
G1 X232.866 Y160.532 E.01314
G1 X232.866 Y150.594 E.3116
G1 X232.447 Y150.594 E.01314
G1 X232.447 Y160.532 E.3116
G1 X232.028 Y160.532 E.01314
G1 X232.028 Y150.594 E.3116
G1 X231.609 Y150.594 E.01314
G1 X231.609 Y160.532 E.3116
G1 X231.19 Y160.532 E.01314
G1 X231.19 Y150.594 E.3116
G1 X230.771 Y150.594 E.01314
G1 X230.771 Y160.532 E.3116
G1 X230.352 Y160.532 E.01314
G1 X230.352 Y150.594 E.3116
G1 X229.933 Y150.594 E.01314
G1 X229.933 Y160.532 E.3116
G1 X229.605 Y160.532 E.01027
G1 X229.605 Y167.013 E.20323
G1 X229.933 Y167.013 E.01027
G1 X229.933 Y171.743 E.14831
G1 X230.352 Y171.743 E.01314
G1 X230.352 Y167.013 E.14831
G1 X230.771 Y167.013 E.01314
G1 X230.771 Y171.743 E.14831
G1 X231.19 Y171.743 E.01314
G1 X231.19 Y167.013 E.14831
G1 X231.609 Y167.013 E.01314
G1 X231.609 Y171.743 E.14831
G1 X232.028 Y171.743 E.01314
G1 X232.028 Y167.013 E.14831
G1 X232.447 Y167.013 E.01314
G1 X232.447 Y171.743 E.14831
G1 X232.866 Y171.743 E.01314
G1 X232.866 Y167.013 E.14831
G1 X233.284 Y167.013 E.01314
G1 X233.284 Y171.743 E.14831
G1 X233.703 Y171.743 E.01314
G1 X233.703 Y167.013 E.14831
G1 X234.122 Y167.013 E.01314
G1 X234.122 Y171.743 E.14831
G1 X234.541 Y171.743 E.01314
G1 X234.541 Y167.013 E.14831
G1 X234.96 Y167.013 E.01314
G1 X234.96 Y171.743 E.14831
G1 X235.379 Y171.743 E.01314
G1 X235.379 Y167.013 E.14831
G1 X235.798 Y167.013 E.01314
G1 X235.798 Y171.913 E.15363
G1 X229.514 Y171.913 F9000
G1 F1200
G1 X229.514 Y121.782 E1.57182
G1 X229.095 Y121.782 E.01314
G1 X229.095 Y171.743 E1.5665
G1 X228.676 Y171.743 E.01314
G1 X228.676 Y121.782 E1.5665
G1 X228.257 Y121.782 E.01314
G1 X228.257 Y171.743 E1.5665
G1 X227.838 Y171.743 E.01314
G1 X227.838 Y121.782 E1.5665
G1 X227.419 Y121.782 E.01314
G1 X227.419 Y171.743 E1.5665
G1 X227 Y171.743 E.01314
G1 X227 Y121.782 E1.5665
G1 X226.581 Y121.782 E.01314
G1 X226.581 Y171.743 E1.5665
G1 X226.162 Y171.743 E.01314
G1 X226.162 Y121.782 E1.5665
G1 X225.743 Y121.782 E.01314
G1 X225.743 Y171.743 E1.5665
G1 X225.324 Y171.743 E.01314
G1 X225.324 Y121.782 E1.5665
G1 X224.905 Y121.782 E.01314
G1 X224.905 Y171.743 E1.5665
G1 X224.486 Y171.743 E.01314
G1 X224.486 Y121.782 E1.5665
G1 X224.067 Y121.782 E.01314
G1 X224.067 Y171.743 E1.5665
G1 X223.648 Y171.743 E.01314
G1 X223.648 Y121.782 E1.5665
G1 X223.229 Y121.782 E.01314
G1 X223.229 Y171.743 E1.5665
G1 X222.81 Y171.743 E.01314
